public/img/icons/etsi.svg

<?xml version="1.0" encoding="UTF-8"?>
<svg width="20px" height="20px" viewBox="0 0 20 20" version="1.1" xmlns="http://www.w3.org/2000/svg" xmlns:xlink="http://www.w3.org/1999/xlink">
    <!-- Generator: Sketch 61 (89581) - https://sketch.com -->
    <title>Etsi</title>
    <desc>Created with Sketch.</desc>
    <defs>
        <path d="M7.43281875,7.10542736e-15 C11.5380217,7.10542736e-15 14.8656375,3.32761578 14.8656375,7.43281875 C14.8656375,9.27387078 14.144291,11.0129417 13.0236506,12.3165438 L13.0236506,12.3165438 L13.338116,12.6310092 L14.1433561,12.7291425 L19.7989899,18.3847763 L18.3847763,19.7989899 L12.7291425,14.1433561 L12.6310092,13.338116 L12.3165438,13.0236506 C11.0129417,14.144291 9.27387078,14.8656375 7.43281875,14.8656375 C3.32761578,14.8656375 2.23110419e-12,11.5380217 2.23110419e-12,7.43281875 C2.23110419e-12,3.32761578 3.32761578,7.10542736e-15 7.43281875,7.10542736e-15 Z M7.5,2 C4.45666667,2 2,4.45666667 2,7.5 C2,10.5433333 4.45666667,13 7.5,13 C10.5433333,13 13,10.5433333 13,7.5 C13,4.45666667 10.5433333,2 7.5,2 Z" id="path-1"></path>
    </defs>
    <g id="ASSETIT-+-tekstityylit" stroke="none" stroke-width="1" fill="none" fill-rule="evenodd">
        <g id="Ryhma-Copy-39">
            <mask id="mask-2" fill="white">
                <use xlink:href="#path-1"></use>
            </mask>
            <use id="Mask" fill="#000000" fill-rule="nonzero" xlink:href="#path-1"></use>
        </g>
    </g>
</svg>

<svg width="20" height="20" xmlns="http://www.w3.org/2000/svg" xmlns:xlink="http://www.w3.org/1999/xlink">
    <defs>
        <path d="M7.433 0a7.433 7.433 0 017.433 7.433c0 1.84-.722 3.58-1.842 4.884l.314.314.805.098 5.656 5.656-1.414 1.414-5.656-5.656-.098-.805-.314-.314c-1.304 1.12-3.043 1.842-4.884 1.842A7.433 7.433 0 117.433 0zM7.5 2A5.493 5.493 0 002 7.5C2 10.543 4.457 13 7.5 13S13 10.543 13 7.5 10.543 2 7.5 2z" id="a"/>
    </defs>
    <use xlink:href="#a"/>
</svg>
